X: 430
T:Flowers of Brooklyn, The
C:Billy McComiskey
S:Mike Rafferty
N:hn-reel-501
N:Posted to the woodenflute mailing list August 2001
D:Kevin Crawford: D flute album
Z:lesl
M:C|
K:G
B{c}BAB GE~E2|DAAG FAd2|dg~g2 edcB|A2FA DGBd|
B2AB GE~E2|DAAG FAd2|dg~g2 ecAF|1 GBAF G~G2A:|2 GBAF G~G2z||
d2ge agfg|ea~a2 c'aa2|ge~e2 dGBd|cAAG FAd2|
d2ge agfg|ea~a2 c'aa2|gbag fdcA|GBAF G~G2z|
d2ge agfg|ea~a2 c'aa2|ge~e2 dGBd|cAAG FAdc|
B2AB GE~E2|DAAG FAd2|dg~g2 ecAF|GBAF G4||
<end>
<start>
